packages/sources/icons/src/vitamix/refresh-line.svg

<svg width="16" height="16" viewBox="0 0 16 16" xmlns="http://www.w3.org/2000/svg"><path d="M4.42069 5.00541C5.27674 3.98331 6.56245 3.33333 7.99997 3.33333C10.5773 3.33333 12.6666 5.42267 12.6666 8C12.6666 8.20792 12.653 8.41266 12.6267 8.61339L11.8666 7.6L10.8 8.4L13.3333 11.7778L15.8666 8.4L14.8 7.6L13.9567 8.72438C13.9853 8.48691 14 8.24517 14 8C14 4.68629 11.3137 2 7.99997 2C6.26364 2 4.69957 2.73755 3.60397 3.91644L4.42069 5.00541Z"/><path d="M7.99997 12.6667C9.43749 12.6667 10.7232 12.0167 11.5792 10.9946L12.396 12.0836C11.3004 13.2625 9.7363 14 7.99997 14C4.68626 14 1.99997 11.3137 1.99997 8C1.99997 7.75483 2.01467 7.51309 2.04325 7.27562L1.19997 8.4L0.133301 7.6L2.66663 4.22222L5.19997 7.6L4.1333 8.4L3.37326 7.38661C3.3469 7.58734 3.3333 7.79208 3.3333 8C3.3333 10.5773 5.42264 12.6667 7.99997 12.6667Z"/></svg>

<svg width="16" height="16" xmlns="http://www.w3.org/2000/svg"><path d="M4.42 5.005a4.667 4.667 0 0 1 8.206 3.608l-.76-1.013-1.066.8 2.533 3.378L15.867 8.4 14.8 7.6l-.843 1.124A6 6 0 0 0 3.604 3.916l.817 1.09ZM8 12.667c1.437 0 2.723-.65 3.58-1.672l.816 1.089A6 6 0 0 1 2.043 7.276L1.2 8.4.133 7.6l2.534-3.378L5.2 7.6l-1.067.8-.76-1.013A4.667 4.667 0 0 0 8 12.667Z"/></svg>
